!!! OTL: Berkowitz255
!!! Chapter: 1
!!! Section: II
!!! Page: 59
!!! Mode: 
!!! Encoder: DJB
**kern
*staff1
*I"Piano
=1-
*clefG2
*k[b-]
*F:
*M4/4
4r
4r
4r
8f/L
8g/J
=2
[2a/
8a\L]
8cc\
8b-\
8a\J
=3
4a/
8g/L
8f#/J
4g/
8g/L
8a/J
=4
[2b-\
8b-\L]
8dd\
8cc\
8bn\J
=5
4cc\
4a/
4r
4a/
=6
4.g/
8bn\
8dd\L
8cc#\
8dd\
8b\J
=7
8cc/L
8g/
8e/
8g/J
4c/
4cc\
=8
!!linebreak:original
4.b-\
8a/
8g/L
8a/
8b-/
8g/J
=9
2cc\
4r
4cc\
=10
4.dd\
8cc\
8b-/L
8a/
8g/
8f/J
=11
8e/L
8g/J
4cc\
4r
8b-/L
8g/J
=12
4.a/
8g#/
8a/L
8f/
8gn/
8a/J
=13
8b-\L
8cc\
8dd\J
8r
4r
8a/L
8g#/J
=14
!!linebreak:original
4.a/
8cc\
8b-\L
8g\
8dd\
8cc\J
=15
2.f/
4r
==
*-
